svgs/light/feather-pointed.svg

<svg xmlns="http://www.w3.org/2000/svg" viewBox="0 0 512 512"><!--! Font Awesome Pro 6.0.0-alpha3 by @fontawesome - https://fontawesome.com License - https://fontawesome.com/license (Commercial License) --><path d="M481.2 0c-.7578 0-1.514 .0299-2.284 .0846C361.4 8.512-9.976 62.86 77.13 412.3l-72.44 72.34c-6.25 6.25-6.25 16.38 0 22.62C7.813 510.4 11.91 512 16 512s8.188-1.562 11.31-4.688l72.34-72.44c36.08 8.992 69.12 13.12 99.19 13.12c261.1 0 305.5-309.5 313.1-414.9C513.2 15.04 498.1 0 481.2 0zM198.8 416c-22.71 0-47.21-3.238-72.21-8.008l56.22-56.22C183.3 351.8 183.6 352 184 352h176.6C317 394.3 263 416 198.8 416zM387.8 320.8C386.5 320.5 385.3 320 384 320H214.6l64.23-64.23C279.3 255.8 279.6 256 280 256h146.2c-1.52 3.285-2.801 6.654-4.404 9.904C411.6 286.5 400.1 304.4 387.8 320.8zM439.6 224h-128.1l36.69-36.69c6.25-6.25 6.25-16.38 0-22.62s-16.38-6.25-22.62 0l-220.6 220.6C87.12 301.7 98.13 231.5 137.7 176.1c82.6-113.9 265.9-139.3 342.2-144.9C476.7 75.25 467.1 150.8 439.6 224z"/></svg>

<svg xmlns="http://www.w3.org/2000/svg" viewBox="0 0 512 512"><!-- Font Awesome Pro 6.0.0-alpha2 by @fontawesome - https://fontawesome.com License - https://fontawesome.com/license (Commercial License) --><path d="M481.152 0C480.395 0 479.635 0.027 478.865 0.082C361.41 8.51 -9.994 62.785 77.107 412.268L4.688 484.688C-1.563 490.938 -1.563 501.063 4.688 507.312C7.813 510.438 11.906 512 16 512S24.188 510.438 27.313 507.312L99.732 434.893C135.816 443.885 168.773 448 198.84 448C459.949 448 504.359 138.461 511.918 33.135C513.217 15.039 498.967 0 481.152 0ZM198.84 416C176.133 416 151.631 412.762 126.633 407.992L182.855 351.77C183.254 351.799 183.594 352 184 352H360.563C317.016 394.291 263.045 416 198.84 416ZM387.775 320.762C386.531 320.453 385.34 320 384 320H214.625L278.855 255.77C279.254 255.799 279.594 256 280 256H426.17C424.65 259.285 423.369 262.654 421.766 265.904C411.621 286.461 400.105 304.4 387.775 320.762ZM439.596 224H310.625L347.313 187.312C353.563 181.062 353.563 170.937 347.313 164.688S330.938 158.438 324.688 164.688L104.121 385.254C87.117 301.652 98.127 231.535 137.688 176.967C220.287 63.033 403.541 37.699 479.91 32.09C476.74 75.25 467.139 150.814 439.596 224Z"/></svg>
